packages/ffe-icons/icons/filled/sm/communities.svg

<svg xmlns="http://www.w3.org/2000/svg" height="20" viewBox="0 -960 960 960" width="20"><path d="M360.248-322.001q30.906 0 52.328-21.67 21.423-21.671 21.423-52.577t-21.67-52.328q-21.671-21.423-52.577-21.423t-52.328 21.67q-21.423 21.671-21.423 52.577t21.67 52.328q21.671 21.423 52.577 21.423Zm240 0q30.906 0 52.328-21.67 21.423-21.671 21.423-52.577t-21.67-52.328q-21.671-21.423-52.577-21.423t-52.328 21.67q-21.423 21.671-21.423 52.577t21.67 52.328q21.671 21.423 52.577 21.423Zm-120-204q30.906 0 52.328-21.67 21.423-21.671 21.423-52.577t-21.67-52.328q-21.671-21.423-52.577-21.423t-52.328 21.67q-21.423 21.671-21.423 52.577t21.67 52.328q21.671 21.423 52.577 21.423Zm.095 410q-75.112 0-141.48-28.42-66.369-28.42-116.182-78.21-49.814-49.791-78.247-116.087t-28.433-141.673q0-75.378 28.42-141.246 28.42-65.869 78.21-115.682 49.791-49.814 116.087-78.247t141.673-28.433q75.378 0 141.246 28.42 65.869 28.42 115.682 78.21 49.814 49.791 78.247 115.853t28.433 141.173q0 75.112-28.42 141.48-28.42 66.369-78.21 116.182-49.791 49.814-115.853 78.247t-141.173 28.433Z"/></svg>

<svg xmlns="http://www.w3.org/2000/svg" height="20" viewBox="0 -960 960 960" width="20"><path d="M360.25-322q30.9 0 52.33-21.67Q434-365.34 434-396.25q0-30.9-21.67-52.33Q390.66-470 359.75-470q-30.9 0-52.33 21.67Q286-426.66 286-395.75q0 30.9 21.67 52.33Q329.34-322 360.25-322Zm240 0q30.9 0 52.33-21.67Q674-365.34 674-396.25q0-30.9-21.67-52.33Q630.66-470 599.75-470q-30.9 0-52.33 21.67Q526-426.66 526-395.75q0 30.9 21.67 52.33Q569.34-322 600.25-322Zm-120-204q30.9 0 52.33-21.67Q554-569.34 554-600.25q0-30.9-21.67-52.33Q510.66-674 479.75-674q-30.9 0-52.33 21.67Q406-630.66 406-599.75q0 30.9 21.67 52.33Q449.34-526 480.25-526Zm.09 410q-75.11 0-141.48-28.42-66.37-28.42-116.18-78.21-49.81-49.79-78.25-116.09Q116-405.01 116-480.39q0-75.38 28.42-141.25t78.21-115.68q49.79-49.81 116.09-78.25Q405.01-844 480.39-844q75.38 0 141.25 28.42t115.68 78.21q49.81 49.79 78.25 115.85Q844-555.45 844-480.34q0 75.11-28.42 141.48-28.42 66.37-78.21 116.18-49.79 49.81-115.85 78.25Q555.45-116 480.34-116Z"/></svg>
